!!!OTL: Maidilei
!!!ARE: Asia, China,ÿHebei Zhuoxian Xiongxian Baoding
!! IV, 39
!!!SCT: C1921
!!!YEM: Copyright 1995, estate of Helmut Schaffrath.
**kern
*ICvox
*Ivox
!! Mixed meters:  3/4; 2/4
*M2/4
*k[f#c#g#]
*A:
{4ee
=1
4aa
4aa
8ee
8ee
=2
4cc#
4r
4bb
=3
8bb
8eee
8ccc#
8bb
8bb
8ff#
=4
4aa}
{8r
8bb
8aa
8bb
=5
8ccc#
8eee
8ccc#
8bb
=6
8aa
8ee
8ff#
8aa
=7
*M3/4
4ee
4r
8cc#
8ee
=8
4cc#
4r}
==
!!!AGN: Xiaodiao
!!!AMT: irregular
!!!AIN: vox
!!!EED: Helmut Schaffrath
!!!EEV: 1.0
*-
